;FLAVOR:Marlin
;TIME:4782
;Filament used: 5.6786m
;Layer height: 0.2625
;Generated with Cura_SteamEngine 2.7.0
M190 S30
M104 S205
M109 S205
G21 ;metric values
G90 ;absolute positioning
M82 ;set extruder to absolute mode
M107 ;start with the fan off
G28 X0 Y0 ;move X/Y to min endstops
G28 Z0 ;move Z to min endstops
G1 Z15.0 F9000 ;move the platform down 15mm
G92 E0 ;zero the extruded length
G1 F200 E3 ;extrude 3mm of feed stock
G92 E0 ;zero the extruded length again
G1 F9000
M117 Printing...
;LAYER_COUNT:25
;LAYER:0
M107
G0 F3000 X53.328 Y24.805 Z0.3
;TYPE:SKIRT
G1 F1500 X57.518 Y16.58 E0.46052
G1 X57.775 Y16.164 E0.48492
G1 X58.07 Y15.821 E0.50749
G1 X64.594 Y9.297 E0.96779
G1 X64.967 Y8.98 E0.99222
G1 X65.353 Y8.745 E1.01476
G1 X73.578 Y4.555 E1.47529
G1 X74.031 Y4.369 E1.49972
G1 X74.47 Y4.265 E1.52222
G1 X83.586 Y2.82 E1.9827
G1 X84.074 Y2.783 E2.00712
G1 X84.525 Y2.82 E2.02969
G1 X93.63 Y4.262 E2.48961
G1 X94.106 Y4.378 E2.51405
G1 X94.522 Y4.552 E2.53655
G1 X102.758 Y8.745 E2.99763
G1 X103.175 Y9.001 E3.02204
G1 X103.518 Y9.297 E3.04464
G1 X110.042 Y15.821 E3.50494
G1 X110.359 Y16.194 E3.52937
G1 X110.594 Y16.58 E3.55191
G1 X114.784 Y24.805 E4.01244
G1 X114.97 Y25.258 E4.03687
G1 X115.074 Y25.698 E4.05942
G1 X116.518 Y34.812 E4.51979
G1 X116.555 Y35.3 E4.54421
G1 X116.518 Y35.75 E4.56674
G1 X115.074 Y44.868 E5.02731
G1 X114.958 Y45.344 E5.05175
G1 X114.784 Y45.761 E5.07429
G1 X110.594 Y53.986 E5.53481
G1 X110.337 Y54.402 E5.55921
G1 X110.042 Y54.745 E5.58178
G1 X103.518 Y61.269 E6.04208
G1 X103.145 Y61.586 E6.06651
G1 X102.759 Y61.821 E6.08905
G1 X94.534 Y66.011 E6.54958
G1 X94.081 Y66.197 E6.57401
G1 X93.642 Y66.301 E6.59652
G1 X84.526 Y67.746 E7.05699
G1 X84.038 Y67.783 E7.08141
G1 X83.586 Y67.746 E7.10403
G1 X74.47 Y66.301 E7.56451
G1 X73.995 Y66.185 E7.58891
G1 X73.578 Y66.011 E7.61145
G1 X65.353 Y61.821 E8.07197
G1 X64.937 Y61.564 E8.09637
G1 X64.594 Y61.269 E8.11894
G1 X58.07 Y54.745 E8.57924
G1 X57.753 Y54.372 E8.60366
G1 X57.518 Y53.986 E8.62621
G1 X53.328 Y45.761 E9.08673
G1 X53.142 Y45.308 E9.11116
G1 X53.038 Y44.869 E9.13367
G1 X51.593 Y35.753 E9.59415
G1 X51.556 Y35.265 E9.61857
G1 X51.593 Y34.813 E9.64119
G1 X53.038 Y25.697 E10.10167
G1 X53.154 Y25.222 E10.12606
G1 X53.328 Y24.805 E10.14861
G0 F3000 X53.684 Y24.987
G1 F1500 X57.874 Y16.762 E10.60913
G1 X58.116 Y16.376 E10.63186
G1 X58.353 Y16.104 E10.64986
G1 X64.877 Y9.58 E11.11016
G1 X65.226 Y9.287 E11.1329
G1 X65.535 Y9.101 E11.15089
G1 X73.76 Y4.911 E11.61141
G1 X74.182 Y4.741 E11.63411
G1 X74.533 Y4.66 E11.65208
G1 X83.649 Y3.215 E12.11256
G1 X84.103 Y3.183 E12.13527
G1 X84.463 Y3.215 E12.1533
G1 X93.568 Y4.657 E12.61321
G1 X94.01 Y4.767 E12.63593
G1 X94.341 Y4.908 E12.65388
G1 X102.577 Y9.101 E13.11496
G1 X102.963 Y9.342 E13.13767
G1 X103.235 Y9.58 E13.1557
G1 X109.759 Y16.104 E13.616
G1 X110.052 Y16.453 E13.63874
G1 X110.238 Y16.762 E13.65673
G1 X114.428 Y24.987 E14.11725
G1 X114.598 Y25.409 E14.13995
G1 X114.679 Y25.76 E14.15792
G1 X116.123 Y34.874 E14.61829
G1 X116.155 Y35.329 E14.64105
G1 X116.123 Y35.688 E14.65903
G1 X114.679 Y44.806 E15.1196
G1 X114.569 Y45.248 E15.14232
G1 X114.428 Y45.579 E15.16027
G1 X110.238 Y53.804 E15.6208
G1 X109.996 Y54.19 E15.64353
G1 X109.759 Y54.462 E15.66153
G1 X103.235 Y60.986 E16.12183
G1 X102.886 Y61.279 E16.14456
G1 X102.577 Y61.465 E16.16256
G1 X94.352 Y65.655 E16.62308
G1 X93.93 Y65.825 E16.64578
G1 X93.579 Y65.906 E16.66375
G1 X84.463 Y67.351 E17.12423
G1 X84.009 Y67.383 E17.14693
G1 X83.649 Y67.351 E17.16497
G1 X74.533 Y65.906 E17.62544
G1 X74.091 Y65.795 E17.64818
G1 X73.76 Y65.655 E17.66611
G1 X65.535 Y61.465 E18.12663
G1 X65.149 Y61.223 E18.14936
G1 X64.877 Y60.986 E18.16736
G1 X58.353 Y54.462 E18.62766
G1 X58.06 Y54.113 E18.6504
G1 X57.874 Y53.804 E18.66839
G1 X53.684 Y45.579 E19.12892
G1 X53.514 Y45.157 E19.15161
G1 X53.433 Y44.806 E19.16959
G1 X51.988 Y35.69 E19.63006
G1 X51.956 Y35.236 E19.65277
G1 X51.988 Y34.876 E19.6708
G1 X53.433 Y25.76 E20.13128
G1 X53.544 Y25.318 E20.15401
G1 X53.684 Y24.987 E20.17194
G0 F3000 X54.041 Y25.168
G1 F1500 X58.231 Y16.943 E20.63247
G1 X58.456 Y16.59 E20.65335
G1 X58.635 Y16.386 E20.66689
G1 X65.159 Y9.862 E21.1272
G1 X65.483 Y9.596 E21.14811
G1 X65.716 Y9.458 E21.16162
G1 X73.941 Y5.268 E21.62214
G1 X74.331 Y5.114 E21.64306
G1 X74.596 Y5.055 E21.65661
G1 X83.712 Y3.61 E22.11709
G1 X84.13 Y3.584 E22.13798
G1 X84.4 Y3.61 E22.15151
G1 X93.505 Y5.052 E22.61143
G1 X93.911 Y5.157 E22.63235
G1 X94.159 Y5.264 E22.64582
G1 X102.395 Y9.457 E23.1069
G1 X102.749 Y9.682 E23.12783
G1 X102.953 Y9.862 E23.1414
G1 X109.477 Y16.386 E23.60171
G1 X109.743 Y16.71 E23.62262
G1 X109.881 Y16.943 E23.63613
G1 X114.071 Y25.168 E24.09665
G1 X114.225 Y25.558 E24.11757
G1 X114.284 Y25.823 E24.13112
G1 X115.728 Y34.937 E24.59149
G1 X115.754 Y35.355 E24.61238
G1 X115.728 Y35.625 E24.62592
G1 X114.284 Y44.743 E25.08648
G1 X114.179 Y45.149 E25.10741
G1 X114.071 Y45.398 E25.12095
G1 X109.881 Y53.623 E25.58147
G1 X109.656 Y53.976 E25.60236
G1 X109.477 Y54.18 E25.6159
G1 X102.953 Y60.704 E26.0762
G1 X102.629 Y60.97 E26.09711
G1 X102.396 Y61.108 E26.11062
G1 X94.171 Y65.298 E26.57115
G1 X93.781 Y65.452 E26.59207
G1 X93.516 Y65.511 E26.60561
G1 X84.4 Y66.956 E27.06609
G1 X83.982 Y66.982 E27.08698
G1 X83.712 Y66.956 E27.10052
G1 X74.596 Y65.511 E27.56099
G1 X74.19 Y65.406 E27.58191
G1 X73.941 Y65.298 E27.59546
G1 X65.716 Y61.108 E28.05598
G1 X65.363 Y60.883 E28.07686
G1 X65.159 Y60.704 E28.0904
G1 X58.635 Y54.18 E28.55071
G1 X58.369 Y53.856 E28.57162
G1 X58.231 Y53.623 E28.58513
G1 X54.041 Y45.398 E29.04566
G1 X53.887 Y45.008 E29.06658
G1 X53.828 Y44.743 E29.08012
G1 X52.383 Y35.627 E29.5406
G1 X52.357 Y35.209 E29.56149
G1 X52.383 Y34.939 E29.57502
G1 X53.828 Y25.823 E30.0355
G1 X53.933 Y25.417 E30.05642
G1 X54.041 Y25.168 E30.06996
G0 F3000 X54.397 Y25.35
G1 F1500 X58.587 Y17.125 E30.53049
G1 X58.918 Y16.669 E30.5586
G1 X65.442 Y10.145 E31.0189
G1 X65.898 Y9.814 E31.04701
G1 X74.123 Y5.624 E31.50754
G1 X74.658 Y5.45 E31.53561
G1 X83.774 Y4.005 E31.99608
G1 X84.338 Y4.005 E32.02422
G1 X93.443 Y5.447 E32.48413
G1 X93.978 Y5.621 E32.5122
G1 X102.214 Y9.814 E32.97328
G1 X102.67 Y10.145 E33.00139
G1 X109.194 Y16.669 E33.4617
G1 X109.525 Y17.125 E33.48981
G1 X113.715 Y25.35 E33.95033
G1 X113.889 Y25.885 E33.9784
G1 X115.333 Y34.999 E34.43877
G1 X115.333 Y35.563 E34.46691
G1 X113.889 Y44.681 E34.92748
G1 X113.715 Y45.216 E34.95554
G1 X109.525 Y53.441 E35.41607
G1 X109.194 Y53.897 E35.44418
G1 X102.67 Y60.421 E35.90448
G1 X102.214 Y60.752 E35.93259
G1 X93.989 Y64.942 E36.39312
G1 X93.454 Y65.116 E36.42119
G1 X84.338 Y66.561 E36.88166
G1 X83.774 Y66.561 E36.9098
G1 X74.658 Y65.116 E37.37028
G1 X74.123 Y64.942 E37.39835
G1 X65.898 Y60.752 E37.85887
G1 X65.442 Y60.421 E37.88698
G1 X58.918 Y53.897 E38.34729
G1 X58.587 Y53.441 E38.3754
G1 X54.397 Y45.216 E38.83592
G1 X54.223 Y44.681 E38.86399
G1 X52.778 Y35.565 E39.32447
G1 X52.778 Y35.001 E39.3526
G1 X54.223 Y25.885 E39.81308
G1 X54.397 Y25.35 E39.84115
G0 F3000 X54.754 Y25.532
G1 F1500 X58.944 Y17.307 E40.30167
G1 X59.201 Y16.952 E40.32354
G1 X65.725 Y10.428 E40.78384
G1 X66.08 Y10.171 E40.80571
G1 X74.305 Y5.981 E41.26623
G1 X74.721 Y5.845 E41.28807
G1 X83.837 Y4.4 E41.74854
G1 X84.275 Y4.4 E41.77039
G1 X93.38 Y5.842 E42.23031
G1 X93.796 Y5.977 E42.25213
G1 X102.032 Y10.17 E42.71321
G1 X102.387 Y10.428 E42.7351
G1 X108.911 Y16.952 E43.1954
G1 X109.168 Y17.307 E43.21727
G1 X113.358 Y25.532 E43.67779
G1 X113.494 Y25.948 E43.69963
G1 X114.938 Y35.062 E44.16
G1 X114.938 Y35.5 E44.18185
G1 X113.494 Y44.618 E44.64242
G1 X113.358 Y45.034 E44.66426
G1 X109.168 Y53.259 E45.12478
G1 X108.911 Y53.614 E45.14664
G1 X102.387 Y60.138 E45.60695
G1 X102.032 Y60.395 E45.62881
G1 X93.807 Y64.585 E46.08934
G1 X93.391 Y64.721 E46.11117
G1 X84.275 Y66.166 E46.57165
G1 X83.837 Y66.166 E46.5935
G1 X74.721 Y64.721 E47.05398
G1 X74.305 Y64.585 E47.07581
G1 X66.08 Y60.395 E47.53634
G1 X65.725 Y60.138 E47.5582
G1 X59.201 Y53.614 E48.01851
G1 X58.944 Y53.259 E48.04037
G1 X54.754 Y45.034 E48.50089
G1 X54.618 Y44.618 E48.52273
G1 X53.173 Y35.502 E48.98321
G1 X53.173 Y35.064 E49.00506
G1 X54.618 Y25.948 E49.46554
G1 X54.754 Y25.532 E49.48737
G0 F3000 X55.11 Y25.713
G1 F1500 X59.3 Y17.488 E49.9479
G1 X59.484 Y17.235 E49.9635
G1 X66.008 Y10.711 E50.42381
G1 X66.261 Y10.527 E50.43941
G1 X74.486 Y6.337 E50.89994
G1 X74.783 Y6.24 E50.91553
G1 X83.899 Y4.795 E51.376
G1 X84.212 Y4.795 E51.39162
G1 X93.317 Y6.237 E51.85153
G1 X93.615 Y6.334 E51.86717
G1 X101.851 Y10.527 E52.32825
G1 X102.104 Y10.711 E52.34385
G1 X108.628 Y17.235 E52.80416
G1 X108.812 Y17.488 E52.81976
G1 X113.002 Y25.713 E53.28029
G1 X113.099 Y26.011 E53.29592
G1 X114.543 Y35.125 E53.75629
G1 X114.543 Y35.437 E53.77186
G1 X113.099 Y44.555 E54.23243
G1 X113.002 Y44.853 E54.24806
G1 X108.812 Y53.078 E54.70859
G1 X108.628 Y53.331 E54.72419
G1 X102.104 Y59.855 E55.1845
G1 X101.851 Y60.039 E55.20011
G1 X93.626 Y64.229 E55.66063
G1 X93.329 Y64.326 E55.67622
G1 X84.213 Y65.771 E56.13669
G1 X83.899 Y65.771 E56.15236
G1 X74.783 Y64.326 E56.61284
G1 X74.486 Y64.229 E56.62842
G1 X66.261 Y60.039 E57.08895
G1 X66.008 Y59.855 E57.10456
G1 X59.484 Y53.331 E57.56486
G1 X59.3 Y53.078 E57.58047
G1 X55.11 Y44.853 E58.04099
G1 X55.013 Y44.556 E58.05658
G1 X53.568 Y35.44 E58.51706
G1 X53.568 Y35.126 E58.53272
G1 X55.013 Y26.01 E58.9932
G1 X55.11 Y25.713 E59.00879
G0 F3000 X55.466 Y25.895
G1 F1500 X59.656 Y17.67 E59.46931
G1 X59.767 Y17.518 E59.4787
G1 X66.291 Y10.994 E59.939
G1 X66.443 Y10.883 E59.94839
G1 X74.668 Y6.693 E60.40892
G1 X74.846 Y6.635 E60.41826
G1 X83.962 Y5.19 E60.87873
G1 X84.15 Y5.19 E60.88811
G1 X93.255 Y6.632 E61.34803
G1 X93.433 Y6.69 E61.35737
G1 X101.669 Y10.883 E61.81845
G1 X101.821 Y10.994 E61.82784
G1 X108.345 Y17.518 E62.28814
G1 X108.456 Y17.67 E62.29753
G1 X112.646 Y25.895 E62.75805
G1 X112.704 Y26.073 E62.76739
G1 X114.148 Y35.187 E63.22777
G1 X114.148 Y35.375 E63.23714
G1 X112.704 Y44.493 E63.69771
G1 X112.646 Y44.671 E63.70705
G1 X108.456 Y52.896 E64.16758
G1 X108.345 Y53.048 E64.17697
G1 X101.821 Y59.572 E64.63727
G1 X101.669 Y59.683 E64.64666
G1 X93.444 Y63.873 E65.10718
G1 X93.266 Y63.931 E65.11652
G1 X84.15 Y65.376 E65.577
G1 X83.962 Y65.376 E65.58638
G1 X74.846 Y63.931 E66.04686
G1 X74.668 Y63.873 E66.0562
G1 X66.443 Y59.683 E66.51672
G1 X66.291 Y59.572 E66.52611
G1 X59.767 Y53.048 E66.98642
G1 X59.656 Y52.896 E66.99581
G1 X55.466 Y44.671 E67.45633
G1 X55.408 Y44.493 E67.46567
G1 X53.963 Y35.377 E67.92615
G1 X53.963 Y35.189 E67.93553
G1 X55.408 Y26.073 E68.396
G1 X55.466 Y25.895 E68.40534
G0 F3000 X55.823 Y26.076
G1 F1500 X60.013 Y17.851 E68.86587
G1 X60.05 Y17.801 E68.86897
G1 X66.574 Y11.277 E69.32927
G1 X66.624 Y11.24 E69.33238
G1 X74.849 Y7.05 E69.7929
G1 X74.909 Y7.03 E69.79606
G1 X84.025 Y5.585 E70.25653
G1 X84.087 Y5.585 E70.25963
G1 X93.192 Y7.027 E70.71954
G1 X93.252 Y7.047 E70.72269
G1 X101.488 Y11.24 E71.18378
G1 X101.538 Y11.277 E71.18688
G1 X108.062 Y17.801 E71.64718
G1 X108.099 Y17.851 E71.65029
G1 X112.289 Y26.076 E72.11081
G1 X112.309 Y26.136 E72.11396
G1 X113.753 Y35.25 E72.57434
G1 X113.753 Y35.312 E72.57743
G1 X112.309 Y44.43 E73.038
G1 X112.289 Y44.49 E73.04115
G1 X108.099 Y52.715 E73.50168
G1 X108.062 Y52.765 E73.50478
G1 X101.538 Y59.289 E73.96508
G1 X101.488 Y59.326 E73.96819
G1 X93.263 Y63.516 E74.42871
G1 X93.203 Y63.536 E74.43187
G1 X84.087 Y64.981 E74.89234
G1 X84.025 Y64.981 E74.89544
G1 X74.909 Y63.536 E75.35591
G1 X74.849 Y63.516 E75.35907
G1 X66.624 Y59.326 E75.81959
G1 X66.574 Y59.289 E75.8227
G1 X60.05 Y52.765 E76.283
G1 X60.013 Y52.715 E76.2861
G1 X55.823 Y44.49 E76.74663
G1 X55.803 Y44.43 E76.74978
G1 X54.358 Y35.314 E77.21026
G1 X54.358 Y35.252 E77.21335
G1 X55.803 Y26.136 E77.67383
G1 X55.823 Y26.076 E77.67699
G1 F1500 E71.17699
G0 F3000 X55.353 Y26.003
G0 X48.053 Y50.945
G1 F1500 E77.67699
G1 X48.469 Y51.119 E77.69948
G1 X56.705 Y55.312 E78.16056
G1 X57.122 Y55.568 E78.18497
G1 X57.465 Y55.864 E78.20758
G1 X63.989 Y62.388 E78.66788
G1 X64.306 Y62.761 E78.6923
G1 X64.541 Y63.147 E78.71485
G1 X68.731 Y71.372 E79.17537
G1 X68.917 Y71.825 E79.1998
G1 X69.021 Y72.265 E79.22236
G1 X70.465 Y81.379 E79.68273
G1 X70.502 Y81.867 E79.70715
G1 X70.465 Y82.317 E79.72967
G1 X69.021 Y91.435 E80.19024
G1 X68.905 Y91.911 E80.21468
G1 X68.731 Y92.328 E80.23723
G1 X64.541 Y100.553 E80.69775
G1 X64.284 Y100.969 E80.72215
G1 X63.989 Y101.312 E80.74472
G1 X57.465 Y107.836 E81.20502
G1 X57.092 Y108.153 E81.22944
G1 X56.706 Y108.388 E81.25199
G1 X48.481 Y112.578 E81.71251
G1 X48.028 Y112.764 E81.73694
G1 X47.589 Y112.868 E81.75945
G1 X38.473 Y114.313 E82.21993
G1 X37.985 Y114.35 E82.24435
G1 X37.533 Y114.313 E82.26697
G1 X28.417 Y112.868 E82.72745
G1 X27.942 Y112.752 E82.75184
G1 X27.525 Y112.578 E82.77439
G1 X19.3 Y108.388 E83.23491
G1 X18.884 Y108.131 E83.2593
G1 X18.541 Y107.836 E83.28188
G1 X12.017 Y101.312 E83.74218
G1 X11.7 Y100.939 E83.7666
G1 X11.465 Y100.553 E83.78915
G1 X7.275 Y92.328 E84.24967
G1 X7.089 Y91.875 E84.2741
G1 X6.985 Y91.436 E84.29661
G1 X5.54 Y82.32 E84.75709
G1 X5.503 Y81.832 E84.7815
G1 X5.54 Y81.38 E84.80413
G1 X6.985 Y72.264 E85.26461
G1 X7.101 Y71.789 E85.289
G1 X7.275 Y71.372 E85.31154
G1 X11.465 Y63.147 E85.77207
G1 X11.722 Y62.731 E85.79646
G1 X12.017 Y62.388 E85.81903
G1 X18.541 Y55.864 E86.27934
G1 X18.914 Y55.547 E86.30376
G1 X19.3 Y55.312 E86.3263
G1 X27.525 Y51.122 E86.78683
G1 X27.978 Y50.936 E86.81126
G1 X28.417 Y50.832 E86.83377
G1 X37.533 Y49.387 E87.29424
G1 X38.021 Y49.35 E87.31866
G1 X38.472 Y49.387 E87.34124
G1 X47.577 Y50.829 E87.80115
G1 X48.053 Y50.945 E87.82559
G0 F3000 X48.288 Y51.475
G1 F1500 X56.524 Y55.668 E88.28667
G1 X56.91 Y55.909 E88.30938
G1 X57.182 Y56.147 E88.32741
G1 X63.706 Y62.671 E88.78771
G1 X63.999 Y63.02 E88.81044
G1 X64.185 Y63.329 E88.82844
G1 X68.375 Y71.554 E89.28896
G1 X68.545 Y71.976 E89.31166
G1 X68.626 Y72.327 E89.32963
G1 X70.07 Y81.441 E89.79
G1 X70.102 Y81.896 E89.81276
G1 X70.07 Y82.255 E89.83074
G1 X68.626 Y91.373 E90.29131
G1 X68.516 Y91.815 E90.31403
G1 X68.375 Y92.146 E90.33198
G1 X64.185 Y100.371 E90.79251
G1 X63.943 Y100.757 E90.81524
G1 X63.706 Y101.029 E90.83323
G1 X57.182 Y107.553 E91.29354
G1 X56.833 Y107.846 E91.31627
G1 X56.524 Y108.032 E91.33427
G1 X48.299 Y112.222 E91.79479
G1 X47.877 Y112.392 E91.81749
G1 X47.526 Y112.473 E91.83546
G1 X38.41 Y113.918 E92.29594
G1 X37.956 Y113.95 E92.31864
G1 X37.596 Y113.918 E92.33667
G1 X28.48 Y112.473 E92.79715
G1 X28.038 Y112.362 E92.81989
G1 X27.707 Y112.222 E92.83782
G1 X19.482 Y108.032 E93.29834
G1 X19.096 Y107.79 E93.32107
G1 X18.824 Y107.553 E93.33907
G1 X12.3 Y101.029 E93.79937
G1 X12.007 Y100.68 E93.82211
G1 X11.821 Y100.371 E93.8401
G1 X7.631 Y92.146 E94.30062
G1 X7.461 Y91.724 E94.32332
G1 X7.38 Y91.373 E94.34129
G1 X5.935 Y82.257 E94.80177
G1 X5.903 Y81.803 E94.82448
G1 X5.935 Y81.443 E94.84251
G1 X7.38 Y72.327 E95.30299
G1 X7.491 Y71.885 E95.32572
G1 X7.631 Y71.554 E95.34365
G1 X11.821 Y63.329 E95.80418
G1 X12.063 Y62.943 E95.82691
G1 X12.3 Y62.671 E95.8449
G1 X18.824 Y56.147 E96.30521
G1 X19.173 Y55.854 E96.32794
G1 X19.482 Y55.668 E96.34594
G1 X27.707 Y51.478 E96.80646
G1 X28.129 Y51.308 E96.82916
G1 X28.48 Y51.227 E96.84713
G1 X37.596 Y49.782 E97.30761
G1 X38.05 Y49.75 E97.33031
G1 X38.41 Y49.782 E97.34834
G1 X47.515 Y51.224 E97.80826
G1 X47.957 Y51.334 E97.83098
G1 X48.288 Y51.475 E97.84893
G0 F3000 X48.106 Y51.831
G1 F1500 X56.342 Y56.024 E98.31001
G1 X56.696 Y56.249 E98.33094
G1 X56.9 Y56.429 E98.34451
G1 X63.424 Y62.953 E98.80481
G1 X63.69 Y63.277 E98.82573
G1 X63.828 Y63.51 E98.83924
G1 X68.018 Y71.735 E99.29976
G1 X68.172 Y72.125 E99.32068
G1 X68.231 Y72.39 E99.33423
G1 X69.675 Y81.504 E99.7946
G1 X69.701 Y81.922 E99.81549
G1 X69.675 Y82.192 E99.82902
G1 X68.231 Y91.31 E100.28959
G1 X68.126 Y91.716 E100.31051
G1 X68.018 Y91.965 E100.32405
G1 X63.828 Y100.19 E100.78458
G1 X63.603 Y100.543 E100.80546
G1 X63.424 Y100.747 E100.819
G1 X56.9 Y107.271 E101.27931
G1 X56.576 Y107.537 E101.30022
G1 X56.343 Y107.675 E101.31373
G1 X48.118 Y111.865 E101.77426
G1 X47.728 Y112.019 E101.79517
G1 X47.463 Y112.078 E101.80872
