;FLAVOR:Marlin
;TIME:11816
;Filament used: 15.6227m
;Layer height: 0.2625
;Generated with Cura_SteamEngine 2.7.0
M190 S30
M104 S205
M109 S205
G21 ;metric values
G90 ;absolute positioning
M82 ;set extruder to absolute mode
M107 ;start with the fan off
G28 X0 Y0 ;move X/Y to min endstops
G28 Z0 ;move Z to min endstops
G1 Z15.0 F9000 ;move the platform down 15mm
G92 E0 ;zero the extruded length
G1 F200 E3 ;extrude 3mm of feed stock
G92 E0 ;zero the extruded length again
G1 F9000
M117 Printing...
;LAYER_COUNT:100
;LAYER:-6
M107
G0 F3000 X27.287 Y45.533 Z0.36
G1 F1125 X27.693 Y45.366 E0.05256
G1 X28.081 Y45.274 E0.10031
G1 X37.183 Y43.83 E1.20378
G1 X37.615 Y43.797 E1.25566
G1 X38.027 Y43.831 E1.30516
G1 X47.102 Y45.269 E2.40532
G1 X47.538 Y45.375 E2.45905
G1 X47.899 Y45.526 E2.5059
G1 X51.34 Y47.279 E2.9683
G1 X52.747 Y46.175 E3.18244
G1 X52.477 Y45.034 E3.32283
G1 X51.041 Y35.965 E4.42225
G1 X51.006 Y35.521 E4.47558
G1 X51.006 Y35.508 E4.47714
G1 X51.041 Y35.069 E4.52987
G1 X52.476 Y26.014 E5.62761
G1 X52.581 Y25.581 E5.68096
G1 X52.739 Y25.203 E5.73002
G1 X56.912 Y17.012 E6.83072
G1 X57.141 Y16.642 E6.88282
G1 X57.415 Y16.322 E6.93327
G1 X63.917 Y9.821 E8.03418
G1 X64.247 Y9.541 E8.086
G1 X64.602 Y9.324 E8.13582
G1 X72.787 Y5.155 E9.23567
G1 X73.193 Y4.988 E9.28824
G1 X73.581 Y4.896 E9.33598
G1 X82.683 Y3.452 E10.43945
G1 X83.115 Y3.419 E10.49133
G1 X83.527 Y3.453 E10.54083
G1 X92.602 Y4.891 E11.64099
G1 X93.038 Y4.997 E11.69472
G1 X93.405 Y5.151 E11.74238
G1 X101.605 Y9.326 E12.84415
G1 X101.979 Y9.557 E12.89679
G1 X102.296 Y9.829 E12.9468
G1 X108.797 Y16.331 E14.04772
G1 X109.079 Y16.663 E14.09987
G1 X109.296 Y17.018 E14.14969
G1 X113.468 Y25.208 E15.25024
G1 X113.634 Y25.612 E15.30254
G1 X113.726 Y25.996 E15.34982
G1 X115.166 Y35.089 E16.45215
G1 X115.201 Y35.531 E16.50524
G1 X115.167 Y35.942 E16.55462
G1 X113.728 Y45.024 E17.65563
G1 X113.623 Y45.455 E17.70875
G1 X113.465 Y45.833 E17.7578
G1 X109.292 Y54.024 E18.85851
G1 X109.063 Y54.394 E18.91061
G1 X108.789 Y54.714 E18.96105
G1 X102.289 Y61.213 E20.06163
G1 X101.957 Y61.495 E20.11379
G1 X101.602 Y61.712 E20.16361
G1 X93.412 Y65.884 E21.26415
G1 X93.007 Y66.05 E21.31656
G1 X92.613 Y66.144 E21.36506
G1 X83.523 Y67.583 E22.46702
G1 X83.087 Y67.616 E22.51937
G1 X82.677 Y67.583 E22.56862
G1 X73.596 Y66.144 E23.66952
G1 X73.165 Y66.039 E23.72263
G1 X72.783 Y65.879 E23.77222
G1 X69.365 Y64.138 E24.23151
G1 X67.958 Y65.242 E24.44565
G1 X68.226 Y66.374 E24.58494
G1 X69.666 Y75.467 E25.68727
G1 X69.701 Y75.909 E25.74036
G1 X69.667 Y76.32 E25.78974
G1 X68.228 Y85.402 E26.89076
G1 X68.124 Y85.831 E26.94361
G1 X67.965 Y86.211 E26.99293
G1 X63.792 Y94.402 E28.09364
G1 X63.563 Y94.772 E28.14574
G1 X63.289 Y95.092 E28.19618
G1 X56.789 Y101.591 E29.29676
G1 X56.457 Y101.873 E29.34892
G1 X56.102 Y102.09 E29.39874
G1 X47.912 Y106.262 E30.49928
G1 X47.507 Y106.428 E30.55169
G1 X47.113 Y106.522 E30.60019
G1 X38.023 Y107.961 E31.70215
G1 X37.587 Y107.994 E31.7545
G1 X37.177 Y107.961 E31.80376
G1 X28.096 Y106.522 E32.90465
G1 X27.665 Y106.417 E32.95777
G1 X27.283 Y106.257 E33.00735
G1 X19.096 Y102.086 E34.10753
G1 X18.725 Y101.856 E34.15979
G1 X18.403 Y101.58 E34.21057
G1 X11.907 Y95.083 E35.31064
G1 X11.625 Y94.751 E35.3628
G1 X11.408 Y94.396 E35.41262
G1 X7.236 Y86.206 E36.51316
G1 X7.068 Y85.799 E36.56589
G1 X6.977 Y85.412 E36.61349
G1 X5.541 Y76.343 E37.71291
G1 X5.506 Y75.899 E37.76623
G1 X5.506 Y75.886 E37.76779
G1 X5.541 Y75.447 E37.82052
G1 X6.976 Y66.392 E38.91827
G1 X7.081 Y65.959 E38.97161
G1 X7.239 Y65.581 E39.02067
G1 X11.412 Y57.39 E40.12138
G1 X11.641 Y57.02 E40.17348
G1 X11.915 Y56.7 E40.22392
G1 X18.415 Y50.201 E41.3245
G1 X18.747 Y49.919 E41.37666
G1 X19.102 Y49.702 E41.42647
G1 X27.287 Y45.533 E42.52632
G0 F3000 X27.2 Y45.577
G1 F1125 X27.2 Y106.214 E49.78678
G0 F3000 X28.8 Y106.633
G1 F1125 X28.8 Y45.159 E57.14747
G0 F3000 X30.4 Y44.906
G1 F1125 X30.4 Y106.887 E64.56885
G0 F3000 X32 Y107.14
G1 F1125 X32 Y44.652 E72.05095
G0 F3000 X33.6 Y44.398
G1 F1125 X33.6 Y107.394 E79.59387
G0 F3000 X35.2 Y107.647
G1 F1125 X35.2 Y44.144 E87.19749
G0 F3000 X36.8 Y43.89
G1 F1125 X36.8 Y107.901 E94.86194
G0 F3000 X38.4 Y107.902
G1 F1125 X38.4 Y43.891 E102.5264
G0 F3000 X40 Y44.144
G1 F1125 X40 Y107.649 E110.13026
G0 F3000 X41.6 Y107.395
G1 F1125 X41.6 Y44.398 E117.6733
G0 F3000 X43.2 Y44.651
G1 F1125 X43.2 Y107.142 E125.15575
G0 F3000 X44.8 Y106.889
G1 F1125 X44.8 Y44.905 E132.5775
G0 F3000 X46.4 Y45.158
G1 F1125 X46.4 Y106.635 E139.93854
G0 F3000 X48 Y106.218
G1 F1125 X48 Y45.578 E147.19936
G0 F3000 X49.6 Y46.393
G1 F1125 X49.6 Y105.403 E154.26501
G0 F3000 X51.2 Y104.588
G1 F1125 X51.2 Y47.208 E161.13549
G0 F3000 X52.224 Y45.991
G0 X51.2 Y36.969
G1 F1125 X51.2 Y34.065 E161.48321
G0 F3000 X52.8 Y25.083
G1 F1125 X52.8 Y103.773 E170.90527
G0 F3000 X54.4 Y102.958
G1 F1125 X54.4 Y21.942 E180.60584
G0 F3000 X56 Y18.802
G1 F1125 X56 Y102.142 E190.58468
G0 F3000 X57.6 Y100.781
G1 F1125 X57.6 Y16.137 E200.71965
G0 F3000 X59.2 Y14.537
G1 F1125 X59.2 Y99.181 E210.85463
G0 F3000 X60.8 Y97.581
G1 F1125 X60.8 Y12.937 E220.9896
G0 F3000 X62.4 Y11.337
G1 F1125 X62.4 Y95.981 E231.12458
G0 F3000 X64 Y93.994
G1 F1125 X64 Y9.75 E241.21166
G0 F3000 X65.6 Y8.815
G1 F1125 X65.6 Y90.854 E251.03472
G0 F3000 X67.2 Y87.713
G1 F1125 X67.2 Y8 E260.57928
G0 F3000 X68.8 Y7.185
G1 F1125 X68.8 Y64.582 E267.45179
G0 F3000 X70.4 Y64.665
G1 F1125 X70.4 Y6.37 E274.43183
G0 F3000 X72 Y5.555
G1 F1125 X72 Y65.48 E281.60704
G0 F3000 X73.6 Y66.144
G1 F1125 X73.6 Y4.892 E288.94114
G0 F3000 X75.2 Y4.639
G1 F1125 X75.2 Y66.398 E296.33594
G0 F3000 X76.8 Y66.651
G1 F1125 X76.8 Y4.385 E303.79146
G0 F3000 X78.4 Y4.131
G1 F1125 X78.4 Y66.905 E311.30779
G0 F3000 X80 Y67.158
G1 F1125 X80 Y3.877 E318.88484
G0 F3000 X81.6 Y3.623
G1 F1125 X81.6 Y67.412 E326.52271
G0 F3000 X83.2 Y67.608
G1 F1125 X83.2 Y3.427 E334.20752
G0 F3000 X84.8 Y3.655
G1 F1125 X84.8 Y67.381 E341.83784
G0 F3000 X86.4 Y67.128
G1 F1125 X86.4 Y3.909 E349.40746
G0 F3000 X88 Y4.162
G1 F1125 X88 Y66.875 E356.9165
G0 F3000 X89.6 Y66.621
G1 F1125 X89.6 Y4.416 E364.36471
G0 F3000 X91.2 Y4.669
G1 F1125 X91.2 Y66.368 E371.75233
G0 F3000 X92.8 Y66.1
G1 F1125 X92.8 Y4.94 E379.07541
G0 F3000 X94.4 Y5.658
G1 F1125 X94.4 Y65.381 E386.22643
G0 F3000 X96 Y64.566
G1 F1125 X96 Y6.473 E393.18229
G0 F3000 X97.6 Y7.287
G1 F1125 X97.6 Y63.751 E399.94309
G0 F3000 X99.2 Y62.936
G1 F1125 X99.2 Y8.102 E406.50872
G0 F3000 X100.8 Y8.917
G1 F1125 X100.8 Y62.121 E412.87918
G0 F3000 X102.4 Y61.103
G1 F1125 X102.4 Y9.934 E419.00597
G0 F3000 X104 Y11.534
G1 F1125 X104 Y59.503 E424.74961
G0 F3000 X105.6 Y57.903
G1 F1125 X105.6 Y13.134 E430.1101
G0 F3000 X107.2 Y14.734
G1 F1125 X107.2 Y56.303 E435.08742
G0 F3000 X108.8 Y54.702
G1 F1125 X108.8 Y16.335 E439.68135
G0 F3000 X110.4 Y19.186
G1 F1125 X110.4 Y51.85 E443.59242
G0 F3000 X112 Y48.709
G1 F1125 X112 Y22.327 E446.75131
G0 F3000 X113.6 Y25.53
G1 F1125 X113.6 Y45.511 E449.14377
G0 F3000 X69.42 Y64.689
G0 X68.481 Y65.426
G0 X68.8 Y69.999
G1 F1125 X68.8 Y81.792 E450.55582
G0 F3000 X25.6 Y105.399
G1 F1125 X25.6 Y46.392 E457.62111
G0 F3000 X24 Y47.207
G1 F1125 X24 Y104.584 E464.49123
G0 F3000 X22.4 Y103.769
G1 F1125 X22.4 Y48.022 E471.16618
G0 F3000 X20.8 Y48.837
G1 F1125 X20.8 Y102.954 E477.64596
G0 F3000 X19.2 Y102.138
G1 F1125 X19.2 Y49.652 E483.93045
G0 F3000 X17.6 Y51.015
G1 F1125 X17.6 Y100.776 E489.88866
G0 F3000 X16 Y99.176
G1 F1125 X16 Y52.615 E495.46371
G0 F3000 X14.4 Y54.215
G1 F1125 X14.4 Y97.576 E500.6556
G0 F3000 X12.8 Y95.976
G1 F1125 X12.8 Y55.815 E505.46434
G0 F3000 X11.2 Y57.806
G1 F1125 X11.2 Y93.987 E509.79652
G0 F3000 X9.6 Y90.846
G1 F1125 X9.6 Y60.946 E513.37664
G0 F3000 X8 Y64.087
G1 F1125 X8 Y87.705 E516.20458
G0 F3000 X6.4 Y81.767
G1 F1125 X6.4 Y70.026 E517.61041
G0 F3000 X24.383 Y47.011
;TIME_ELAPSED:237.944011
;LAYER:-5
M140 S30
G0 X24.383 Y47.011 Z0.753
;TYPE:SUPPORT
G1 F1125 X25.32 Y46.533 E517.7479
G1 X66.963 Y88.176 E525.44582
G1 X67.441 Y87.24 E525.5832
G1 X26.257 Y46.056 E533.19628
G1 X27.194 Y45.579 E533.33371
G1 X67.918 Y86.303 E540.86175
G1 X67.964 Y86.209 E540.87543
G1 X68.124 Y85.83 E540.9292
G1 X68.228 Y85.4 E540.98703
G1 X68.256 Y85.226 E541.01007
G1 X28.272 Y45.243 E548.40122
G1 X29.493 Y45.049 E548.56283
G1 X68.449 Y84.005 E555.76404
G1 X68.643 Y82.785 E555.92552
G1 X30.713 Y44.856 E562.93698
G1 X31.934 Y44.662 E563.09858
G1 X68.836 Y81.564 E569.92011
G1 X69.029 Y80.343 E570.08169
G1 X33.154 Y44.468 E576.71337
G1 X34.375 Y44.274 E576.87497
G1 X69.222 Y79.122 E583.31671
G1 X69.416 Y77.901 E583.47831
G1 X35.595 Y44.081 E589.7302
G1 X36.816 Y43.887 E589.8918
G1 X69.61 Y76.681 E595.95394
G1 X69.666 Y76.319 E596.00182
G1 X69.7 Y75.907 E596.05586
G1 X69.666 Y75.465 E596.11381
G1 X69.639 Y75.296 E596.13618
G1 X38.202 Y43.859 E601.94747
G1 X39.882 Y44.124 E602.16978
G1 X69.373 Y73.616 E607.62144
G1 X69.106 Y71.935 E607.84392
G1 X41.563 Y44.391 E612.93548
G1 X43.243 Y44.658 E613.15783
G1 X68.84 Y70.254 E617.88947
G1 X68.574 Y68.574 E618.11181
G1 X44.923 Y44.923 E622.48381
G1 X46.604 Y45.19 E622.7063
G1 X68.307 Y66.893 E626.71821
G1 X68.225 Y66.373 E626.78702
G1 X67.957 Y65.241 E626.93907
G1 X68.02 Y65.191 E626.94959
G1 X48.829 Y46 E630.49714
G1 X51.339 Y47.279 E630.86537
G1 X51.442 Y47.199 E630.88242
G1 X68.812 Y64.57 E634.09344
G1 X69.364 Y64.137 E634.18515
G1 X70.24 Y64.583 E634.31364
G1 X52.234 Y46.577 E637.64214
G1 X52.746 Y46.174 E637.72731
G1 X52.591 Y45.519 E637.81529
G1 X73.071 Y66 E641.60122
G1 X73.164 Y66.039 E641.6144
G1 X73.595 Y66.144 E641.67238
G1 X74.823 Y66.338 E641.83489
G1 X52.279 Y43.793 E646.00235
G1 X52.013 Y42.113 E646.22469
G1 X76.504 Y66.604 E650.75197
G1 X78.184 Y66.87 E650.97431
G1 X51.747 Y40.433 E655.86132
G1 X51.481 Y38.753 E656.08365
G1 X79.864 Y67.136 E661.3304
G1 X81.544 Y67.402 E661.55273
G1 X51.215 Y37.073 E667.1592
G1 X51.04 Y35.964 E667.30596
G1 X51.005 Y35.52 E667.36417
G1 X51.005 Y35.508 E667.36574
G1 X51.009 Y35.452 E667.37308
G1 X83.166 Y67.61 E673.31756
G1 X83.522 Y67.583 E673.36423
G1 X84.412 Y67.441 E673.48203
G1 X51.176 Y34.205 E679.62588
G1 X51.369 Y32.985 E679.78733
G1 X85.633 Y67.248 E686.12111
G1 X86.854 Y67.055 E686.2827
G1 X51.562 Y31.763 E692.8066
G1 X51.756 Y30.543 E692.96808
G1 X88.075 Y66.861 E699.68174
G1 X89.296 Y66.668 E699.84332
G1 X51.95 Y29.323 E706.74683
G1 X52.143 Y28.101 E706.90854
G1 X90.517 Y66.475 E714.00217
G1 X91.737 Y66.282 E714.16362
G1 X52.337 Y26.881 E721.44701
G1 X52.475 Y26.013 E721.56189
G1 X52.554 Y25.684 E721.60612
G1 X92.936 Y66.066 E729.07094
G1 X93.006 Y66.05 E729.08032
G1 X93.411 Y65.883 E729.13759
G1 X93.912 Y65.627 E729.21113
G1 X52.99 Y24.706 E736.77568
G1 X53.467 Y23.769 E736.91311
G1 X94.849 Y65.15 E744.56269
G1 X95.786 Y64.673 E744.70013
G1 X53.945 Y22.832 E752.43465
G1 X54.422 Y21.895 E752.57209
G1 X96.723 Y64.196 E760.39165
G1 X97.659 Y63.718 E760.52902
G1 X54.899 Y20.958 E768.43343
G1 X55.377 Y20.022 E768.57081
G1 X98.596 Y63.241 E776.56006
G1 X99.534 Y62.764 E776.69761
G1 X55.855 Y19.085 E784.7719
G1 X56.332 Y18.148 E784.90933
G1 X100.471 Y62.287 E793.06866
G1 X101.408 Y61.81 E793.20609
G1 X56.809 Y17.211 E801.45045
G1 X56.911 Y17.012 E801.47967
G1 X57.14 Y16.641 E801.53666
G1 X57.376 Y16.364 E801.58423
G1 X102.254 Y61.241 E809.88007
G1 X102.288 Y61.212 E809.88591
G1 X102.963 Y60.537 E810.01069
G1 X58.081 Y15.655 E818.30735
G1 X58.788 Y14.948 E818.43805
G1 X103.671 Y59.83 E826.73481
G1 X104.378 Y59.123 E826.8655
G1 X59.495 Y14.241 E835.16226
G1 X60.203 Y13.534 E835.29305
G1 X105.085 Y58.416 E843.58972
G1 X105.792 Y57.709 E843.72041
G1 X60.91 Y12.826 E852.01717
G1 X61.617 Y12.119 E852.14786
G1 X106.499 Y57.001 E860.44453
G1 X107.206 Y56.294 E860.57522
G1 X62.324 Y11.412 E868.87189
G1 X63.031 Y10.705 E869.00259
G1 X107.913 Y55.587 E877.29925
G1 X108.62 Y54.88 E877.42995
G1 X63.738 Y9.998 E885.72662
G1 X63.916 Y9.821 E885.75943
G1 X64.245 Y9.54 E885.81598
G1 X64.524 Y9.37 E885.85869
G1 X109.247 Y54.093 E894.12597
G1 X109.291 Y54.023 E894.13677
G1 X109.73 Y53.162 E894.2631
G1 X65.456 Y8.888 E902.44738
G1 X66.393 Y8.411 E902.58481
G1 X110.208 Y52.225 E910.68415
G1 X110.685 Y51.288 E910.82158
G1 X67.33 Y7.933 E918.83598
G1 X68.268 Y7.457 E918.97347
G1 X111.162 Y50.351 E926.90265
G1 X111.64 Y49.414 E927.04014
G1 X69.205 Y6.979 E934.88447
G1 X70.142 Y6.502 E935.0219
G1 X112.117 Y48.477 E942.7812
G1 X112.594 Y47.54 E942.91863
G1 X71.079 Y6.025 E950.59289
G1 X72.015 Y5.547 E950.73027
G1 X113.072 Y46.603 E958.31978
G1 X113.464 Y45.832 E958.43283
G1 X113.538 Y45.656 E958.45779
G1 X72.964 Y5.081 E965.95819
G1 X73.192 Y4.987 E965.99043
G1 X73.58 Y4.896 E966.04252
G1 X74.109 Y4.812 E966.11254
G1 X113.808 Y44.512 E973.45119
G1 X114.002 Y43.291 E973.6128
G1 X75.329 Y4.618 E980.7617
G1 X76.549 Y4.425 E980.92315
G1 X114.195 Y42.07 E987.88212
G1 X114.389 Y40.85 E988.04359
G1 X77.77 Y4.231 E994.8128
G1 X78.991 Y4.038 E994.97438
G1 X114.582 Y39.629 E1001.55356
G1 X114.776 Y38.408 E1001.71516
G1 X80.212 Y3.844 E1008.10449
G1 X81.432 Y3.65 E1008.26597
G1 X114.969 Y37.187 E1014.46545
G1 X115.162 Y35.966 E1014.62704
G1 X82.653 Y3.457 E1020.63649
G1 X82.681 Y3.452 E1020.64021
G1 X83.114 Y3.418 E1020.69698
G1 X83.526 Y3.453 E1020.75103
G1 X84.164 Y3.554 E1020.83546
G1 X115.064 Y34.454 E1026.54749
G1 X114.798 Y32.774 E1026.76982
G1 X85.845 Y3.821 E1032.12193
G1 X87.525 Y4.087 E1032.34426
G1 X114.532 Y31.094 E1037.33665
G1 X114.267 Y29.414 E1037.55896
G1 X89.205 Y4.352 E1042.1918
G1 X90.885 Y4.618 E1042.41413
G1 X114 Y27.733 E1046.68706
G1 X113.734 Y26.053 E1046.90939
G1 X92.566 Y4.885 E1050.8224
G1 X92.601 Y4.89 E1050.82702
G1 X93.037 Y4.997 E1050.88571
G1 X93.404 Y5.15 E1050.93768
G1 X95.119 Y6.023 E1051.18922
G1 X112.599 Y23.504 E1054.42058
G1 X111.131 Y20.621 E1054.84347
G1 X98 Y7.491 E1057.27071
G1 X100.882 Y8.958 E1057.69342
G1 X109.663 Y17.739 E1059.31663
G0 F3000 X68.481 Y65.426
G0 X66.486 Y89.113
G1 F1125 X66.009 Y90.05 E1059.45406
G1 X23.446 Y47.488 E1067.32196
G1 X22.51 Y47.965 E1067.45928
G1 X65.531 Y90.987 E1075.41203
G1 X65.054 Y91.924 E1075.54946
G1 X21.573 Y48.443 E1083.58715
G1 X20.636 Y48.92 E1083.72458
G1 X64.577 Y92.861 E1091.8473
G1 X64.099 Y93.798 E1091.9848
G1 X19.699 Y49.397 E1100.19246
G1 X19.101 Y49.701 E1100.28014
G1 X18.783 Y49.896 E1100.3289
G1 X63.6 Y94.712 E1108.61346
G1 X63.562 Y94.771 E1108.62264
G1 X63.288 Y95.091 E1108.6777
G1 X62.926 Y95.453 E1108.74462
G1 X18.043 Y50.57 E1117.04147
G1 X17.336 Y51.277 E1117.17217
G1 X62.219 Y96.16 E1125.46902
G1 X61.511 Y96.867 E1125.59981
G1 X16.629 Y51.985 E1133.89647
G1 X15.922 Y52.692 E1134.02717
G1 X60.804 Y97.574 E1142.32384
G1 X60.097 Y98.281 E1142.45453
G1 X15.215 Y53.399 E1150.7512
G1 X14.508 Y54.106 E1150.88189
G1 X59.39 Y98.988 E1159.17856
G1 X58.683 Y99.695 E1159.30925
G1 X13.801 Y54.813 E1167.60592
G1 X13.094 Y55.52 E1167.73661
G1 X57.976 Y100.402 E1176.03328
G1 X57.269 Y101.109 E1176.16397
G1 X12.387 Y56.227 E1184.46064
G1 X11.915 Y56.699 E1184.54789
G1 X11.697 Y56.952 E1184.59155
G1 X56.543 Y101.798 E1192.88156
G1 X56.457 Y101.872 E1192.89639
G1 X56.101 Y102.089 E1192.95089
G1 X55.65 Y102.319 E1193.01706
G1 X11.177 Y57.846 E1201.23813
G1 X10.7 Y58.783 E1201.37556
G1 X54.713 Y102.796 E1209.51159
G1 X53.776 Y103.273 E1209.64903
G1 X10.223 Y59.72 E1217.70002
G1 X9.746 Y60.657 E1217.83746
G1 X52.839 Y103.75 E1225.80342
G1 X51.902 Y104.228 E1225.94091
G1 X9.268 Y61.594 E1233.82203
G1 X8.791 Y62.531 E1233.95946
G1 X50.965 Y104.705 E1241.75554
G1 X50.028 Y105.182 E1241.89298
G1 X8.314 Y63.468 E1249.60403
G1 X7.836 Y64.405 E1249.74152
G1 X49.091 Y105.66 E1257.36772
G1 X48.154 Y106.137 E1257.50515
G1 X7.359 Y65.342 E1265.04632
G1 X7.238 Y65.58 E1265.08122
G1 X7.08 Y65.958 E1265.13477
G1 X6.979 Y66.376 E1265.19098
G1 X47.121 Y106.518 E1272.61144
G1 X47.113 Y106.521 E1272.61255
G1 X45.901 Y106.713 E1272.77295
G1 X6.784 Y67.595 E1280.00402
G1 X6.591 Y68.817 E1280.16573
G1 X44.68 Y106.906 E1287.20668
G1 X43.459 Y107.099 E1287.36826
G1 X6.397 Y70.037 E1294.21936
G1 X6.204 Y71.257 E1294.38082
G1 X42.239 Y107.292 E1301.04207
G1 X41.017 Y107.485 E1301.20378
G1 X6.011 Y72.479 E1307.67482
G1 X5.817 Y73.699 E1307.83629
G1 X39.796 Y107.678 E1314.11749
